storage/app/icons/phosphoricons/bold/images-bold.svg

<svg xmlns="http://www.w3.org/2000/svg" fill="currentColor" viewBox="0 0 256 256"><path d="M160 88a16 16 0 1 1 16 16 16 16 0 0 1-16-16m76-32v104a20 20 0 0 1-20 20h-12v20a20 20 0 0 1-20 20H40a20 20 0 0 1-20-20V88a20 20 0 0 1 20-20h20V56a20 20 0 0 1 20-20h136a20 20 0 0 1 20 20m-56 124H80a20 20 0 0 1-20-20V92H44v104h136Zm-21.66-24L124 121.66 89.66 156ZM212 60H84v67.72l25.86-25.86a20 20 0 0 1 28.28 0L192.28 156H212Z"/></svg>

<svg xmlns="http://www.w3.org/2000/svg" viewBox="0 0 256 256" fill="currentColor"><path d="M160,88a16,16,0,1,1,16,16A16,16,0,0,1,160,88Zm76-32V160a20,20,0,0,1-20,20H204v20a20,20,0,0,1-20,20H40a20,20,0,0,1-20-20V88A20,20,0,0,1,40,68H60V56A20,20,0,0,1,80,36H216A20,20,0,0,1,236,56ZM180,180H80a20,20,0,0,1-20-20V92H44V196H180Zm-21.66-24L124,121.66,89.66,156ZM212,60H84v67.72l25.86-25.86a20,20,0,0,1,28.28,0L192.28,156H212Z"/></svg>
